X: 909
T: Soldier's Joy
B: jims roots
B: ralph
M:4/4
L:1/8
R: hornpipe
Q: 1/4=100
K:Dmaj
V:1 
|:FG||"D"AFDF AFDF|A2 d2 d2 cB|AFDF AFDF|"A"G2E2 E2 FG|
|"D"AFDF AFDF|A2 d2 d2 de|fafd "A"egec|"D"d2f2d2:|
|:de||fdAd fagf|"G"edcd efge| "D"fdAd fgaf|"A"edcB A2 de|
|"D"fdAd fagf|"G"edcd efge|"D"fafd "A"egec|"D"d2f2 d2:|
|:de||"D"fefg abaf|"G"edef gfeg| "D"fefg abaf|"A"edcB A2 de|
|"D"fefg abaf|"G"edef gfeg|"D"fedf "A"edce|"D"d2dd d2:|
% abcbook-tune_id 6298c2876b94f94adba9e476


% abcbook-boost 0
% abcbook-tablature 
% abcbook-transpose 
% abcbook-lastupdated 1665486351075
% abcbook-soundfonts 
% abcbook-repeats 1


